swiss/communes/5221.svg

<svg xmlns="http://www.w3.org/2000/svg" xmlns:xlink="http://www.w3.org/1999/xlink" height="763" width="603" version="1.0"><defs><linearGradient id="a"><stop style="stop-color:#fff;stop-opacity:.3137255" offset="0"/><stop offset=".19" style="stop-color:#fff;stop-opacity:.25098041"/><stop style="stop-color:#6b6b6b;stop-opacity:.1254902" offset=".6"/><stop style="stop-color:#000;stop-opacity:.1254902" offset="1"/></linearGradient><linearGradient y2="239.969" x2="237.299" y1="324.386" x1="337.903" gradientUnits="userSpaceOnUse" id="b"><stop style="stop-color:#fff" offset=".05"/><stop style="stop-color:#b7502c" offset=".75"/></linearGradient><linearGradient xlink:href="#b" id="c" gradientUnits="userSpaceOnUse" x1="337.903" y1="324.386" x2="237.299" y2="239.969"/><radialGradient xlink:href="#a" id="d" gradientUnits="userSpaceOnUse" gradientTransform="matrix(1.21503 0 0 1.26667 -839.192 -490.49)" cx="858.042" cy="579.933" fx="858.042" fy="579.933" r="300"/></defs><g style="opacity:1"><path d="M1.5 1.5v458.868c0 166.311 134.314 301.132 300 301.132s300-134.821 300-301.132V1.5H1.5z" style="opacity:1;fill:#fff"/></g><g style="opacity:1;display:inline"><path d="M332.48 306.181s19.673 5.723 31.477 13.234c11.803 7.511 16.454 14.307 9.657 25.753 0 0 8.2-10.911 17.906-15.112 11.154-4.829 22.623-23.406 41.11-22.266 0 0-14.438-14.35-26.111 2.325-3.755 5.365-14.306 14.486-27.004 8.942-12.698-5.544-27.898-15.38-27.898-25.216s-19.137 12.34-19.137 12.34z" style="fill:#fcef3c;stroke:#000;stroke-width:3;stroke-linecap:round;stroke-linejoin:round"/><path d="M296.981 323.349s36.751 28.704 42.385 32.191c5.633 3.487 3.219 9.389-5.098 14.218-8.315 4.829-5.901 16.9-4.292 22.534 0 0 2.856-16.378 19.852-28.167 14.889-10.328 16.9-2.28 26.625-12.005 8.27-8.271 13.681-9.792 13.681-9.792s-5.867-6.214-19.918 4.896c-5.768 4.56-16.096 6.706-26.96-1.61-10.865-8.316-32.057-24.68-32.057-30.85 0-6.169-14.218 8.585-14.218 8.585z" style="fill:#fcef3c;stroke:#000;stroke-width:3;stroke-linecap:round;stroke-linejoin:round"/><path d="M288.248 327.106c-12.143 8.328-25.34 14.659-39.464 17.704 0 0 .026-3.165.667-8.574-77.025 80.54-86.651 105.715-99.745 105.715-12.072 0-13.761-26.31-13.761-26.31-21.378 3.837-26.859-10.415-18.637-18.638 8.222-8.222 84.962-93.184 88.798-97.021 3.837-3.837 24.393-57.829 60.844-94.28 36.452-36.451 74-37.273 74-37.273 4.386-19.185 16.443-44.399 54.265-44.399s49.882 29.051 49.882 29.051c21.378 3.289 29.051 5.482 29.051 8.771 0 3.045-36.51 6.264-36.51 6.264s-13.232 25.395-22.175 41.133c-8.943 15.738-18.601 55.083-58.303 86.917-20.326 16.297-47.363 25.672-68.912 30.94z" style="fill:url(#c)"/><path d="M422.616 167.758c-13.95 2.504-23.599 14.322-33.622 32.907-11.312 20.97 2.181 55.922 17.458 28.227v-.001c3.589-8.101 6.335-14.933 9.011-19.642 6.184-10.883 14.417-26.379 18.909-34.907.786-5.156-1.826-8.366-11.756-6.584z" style="fill:#e20909"/><path d="M249.451 336.236c1.708-14.427 7.019-45.406 29.377-73.692 29.687-37.557 44.353-25.753 63.667-51.864M376.475 211.038s-33.336 78.425-88.227 116.068M215.877 309.4l-98.453 103.415M184.043 358.402l-54.013 57.865M233.375 320.159l-96.926 99.94M192.627 376.644l-52.989 56.017" style="fill:none;stroke:#000;stroke-width:3;stroke-linecap:round;stroke-linejoin:round"/><path d="M322.127 246.073c-11.951 10.625-29.28 22.13-46.997 21.39M266.978 280.362c30.785 6.209 57.722-16.221 71.595-34.64" style="fill:none;stroke:#000;stroke-width:3;stroke-linecap:round;stroke-linejoin:round"/><path d="M254.523 310.683c27.558-1.937 47.602-34.811 47.602-34.811 24.017 7.518 39.297-10.674 48.32-26.373 2.781-4.838 5.35-10.103 5.35-10.103" style="fill:none;stroke:#000;stroke-width:3;stroke-linecap:round;stroke-linejoin:round"/><path d="M318.374 277.159s-34.913 51.196-67.811 51.196M280.268 281.46s-4.545 8.539-20.34 13.589M300.393 240.893s49.89 20.984 70.855-18.698" style="fill:none;stroke:#000;stroke-width:3;stroke-linecap:round;stroke-linejoin:round"/><path d="M358.681 211.753s-19.253 35.59-42.958 33.419" style="fill:none;stroke:#000;stroke-width:3;stroke-linecap:round;stroke-linejoin:round"/><path d="M288.248 327.106c-12.143 8.328-25.34 14.659-39.464 17.704 0 0 .026-3.165.667-8.574-77.025 80.54-86.651 105.715-99.745 105.715-12.072 0-13.761-26.31-13.761-26.31-21.378 3.837-26.859-10.415-18.637-18.638 8.222-8.222 84.962-93.184 88.798-97.021 3.837-3.837 24.393-57.829 60.844-94.28 36.452-36.451 74-37.273 74-37.273 4.386-19.185 16.443-44.399 54.265-44.399s48.146 29.051 48.146 29.051c21.378 3.289 30.786 5.482 30.786 8.771 0 3.045-36.51 6.264-36.51 6.264s-13.232 25.395-22.175 41.133c-8.943 15.738-18.601 55.083-58.303 86.917-20.325 16.297-47.362 25.672-68.911 30.94z" style="fill:none;stroke:#000;stroke-width:3;stroke-linecap:round;stroke-linejoin:round"/><circle cx="412.958" cy="154.882" r="7.511"/><path style="fill:#e20909" d="M601.5 166.729 48.295 621.924a302.383 302.383 0 0 0 47.033 57.182L601.5 262.611v-95.882z"/><path style="fill:none;stroke:#000;stroke-width:3;stroke-linecap:round;stroke-linejoin:round" d="M95.328 679.105 601.5 262.611M601.5 166.729 48.295 621.924"/><path style="fill:#e20909;stroke:#000;stroke-width:3;stroke-linecap:round;stroke-linejoin:round" d="m107.966 38.196 17.128 52.722h55.433l-44.842 32.581 17.126 52.719-44.845-32.582-44.846 32.582 17.128-52.719-44.845-32.581h55.434l17.129-52.722z"/></g><g style="display:inline"><path style="fill:url(#d);fill-opacity:1" d="M1.5 1.5v458.868c0 166.31 134.315 301.132 300 301.132s300-134.821 300-301.132V1.5H1.5z"/></g><g style="display:inline"><path style="fill:none;fill-opacity:1;stroke:#000;stroke-width:3;stroke-miterlimit:4;stroke-dasharray:none;stroke-opacity:1" d="M1.5 1.5v458.868c0 166.31 134.315 301.132 300 301.132s300-134.821 300-301.132V1.5H1.5z"/></g></svg>

<?xml version="1.0" encoding="UTF-8" standalone="no"?>
<svg
   xmlns:dc="http://purl.org/dc/elements/1.1/"
   xmlns:cc="http://creativecommons.org/ns#"
   xmlns:rdf="http://www.w3.org/1999/02/22-rdf-syntax-ns#"
   xmlns:svg="http://www.w3.org/2000/svg"
   xmlns="http://www.w3.org/2000/svg"
   xmlns:xlink="http://www.w3.org/1999/xlink"
   xmlns:sodipodi="http://sodipodi.sourceforge.net/DTD/sodipodi-0.dtd"
   xmlns:inkscape="http://www.inkscape.org/namespaces/inkscape"
   height="763"
   width="603"
   version="1.0"
   id="svg20"
   sodipodi:version="0.32"
   inkscape:version="0.46"
   sodipodi:docname="Savosa-coat_of_arms.svg"
   sodipodi:docbase="C:\Documents and Settings\Steve\Bureau\Blason Villages Suisse pour Wikipédia (par Delta-9)"
   inkscape:output_extension="org.inkscape.output.svg.inkscape">
  <metadata
     id="metadata31">
    <rdf:RDF>
      <cc:Work
         rdf:about="">
        <dc:format>image/svg+xml</dc:format>
        <dc:type
           rdf:resource="http://purl.org/dc/dcmitype/StillImage" />
        <dc:date>07-AUG-2006</dc:date>
        <dc:creator>
          <cc:Agent>
            <dc:title>Jérôme BLUM (wagner51)</dc:title>
          </cc:Agent>
        </dc:creator>
        <cc:license
           rdf:resource="http://creativecommons.org/licenses/GPL/2.0/" />
        <dc:coverage />
        <dc:description>Gabarit pour le Projet:Blasons de WIkipédia</dc:description>
        <dc:subject>
          <rdf:Bag>
            <rdf:li>blason suisse modèle gabarit projet blasons</rdf:li>
          </rdf:Bag>
        </dc:subject>
        <dc:language>fr</dc:language>
        <dc:title>Gabrit d'un blason suisse</dc:title>
      </cc:Work>
      <cc:License
         rdf:about="http://creativecommons.org/licenses/GPL/2.0/">
        <cc:permits
           rdf:resource="http://web.resource.org/cc/Reproduction" />
        <cc:permits
           rdf:resource="http://web.resource.org/cc/Distribution" />
        <cc:requires
           rdf:resource="http://web.resource.org/cc/Notice" />
        <cc:permits
           rdf:resource="http://web.resource.org/cc/DerivativeWorks" />
        <cc:requires
           rdf:resource="http://web.resource.org/cc/ShareAlike" />
        <cc:requires
           rdf:resource="http://web.resource.org/cc/SourceCode" />
      </cc:License>
    </rdf:RDF>
  </metadata>
  <defs
     id="defs29"><inkscape:perspective
   sodipodi:type="inkscape:persp3d"
   inkscape:vp_x="0 : 381.5 : 1"
   inkscape:vp_y="0 : 1000 : 0"
   inkscape:vp_z="603 : 381.5 : 1"
   inkscape:persp3d-origin="301.5 : 254.33333 : 1"
   id="perspective28" />
<linearGradient
   id="linearGradient2893">
  <stop
     style="stop-color:#ffffff;stop-opacity:0.3137255;"
     offset="0"
     id="stop2895" />
  <stop
     id="stop2897"
     offset="0.19"
     style="stop-color:#ffffff;stop-opacity:0.25098041;" />
  <stop
     style="stop-color:#6b6b6b;stop-opacity:0.1254902;"
     offset="0.60000002"
     id="stop2901" />
  <stop
     style="stop-color:#000000;stop-opacity:0.1254902;"
     offset="1"
     id="stop2899" />
</linearGradient>
<linearGradient
   id="linearGradient2955">
  <stop
     style="stop-color:white;stop-opacity:0;"
     offset="0"
     id="stop2965" />
  <stop
     style="stop-color:black;stop-opacity:0.64583331;"
     offset="1"
     id="stop2959" />
</linearGradient>
<radialGradient
   inkscape:collect="always"
   xlink:href="#linearGradient2893"
   id="radialGradient3236"
   gradientUnits="userSpaceOnUse"
   gradientTransform="matrix(1.215027,1.531577e-24,1.464684e-23,1.266667,-839.1924,-490.4894)"
   cx="858.04236"
   cy="579.93323"
   fx="858.04236"
   fy="579.93323"
   r="300" />
<inkscape:perspective
   id="perspective2583"
   inkscape:persp3d-origin="306 : 264 : 1"
   inkscape:vp_z="612 : 396 : 1"
   inkscape:vp_y="0 : 1000 : 0"
   inkscape:vp_x="0 : 396 : 1"
   sodipodi:type="inkscape:persp3d" />
<linearGradient
   inkscape:collect="always"
   xlink:href="#XMLID_2_"
   id="linearGradient2658"
   gradientUnits="userSpaceOnUse"
   x1="337.90329"
   y1="324.3862"
   x2="237.2986"
   y2="239.9689" />

	
	
	
		

	

		
		
		
	<linearGradient
   inkscape:collect="always"
   xlink:href="#XMLID_2_"
   id="linearGradient2695"
   gradientUnits="userSpaceOnUse"
   x1="337.90329"
   y1="324.3862"
   x2="237.2986"
   y2="239.9689" />

		
		
		
		
	
			
			
			
				
			
				
			
				
			
				
			
			
			
			
			
			
			
			
		<linearGradient
   inkscape:collect="always"
   xlink:href="#XMLID_2_"
   id="linearGradient2736"
   gradientUnits="userSpaceOnUse"
   x1="337.90329"
   y1="324.3862"
   x2="237.2986"
   y2="239.9689" />

			<linearGradient
   y2="239.9689"
   x2="237.2986"
   y1="324.3862"
   x1="337.90329"
   gradientUnits="userSpaceOnUse"
   id="XMLID_2_">
				<stop
   id="stop2529"
   style="stop-color:#FFFFFF"
   offset="0.05" />

				<stop
   id="stop2531"
   style="stop-color:#B7502C"
   offset="0.75" />

			</linearGradient>

			
			
		<linearGradient
   inkscape:collect="always"
   xlink:href="#XMLID_2_"
   id="linearGradient2743"
   gradientUnits="userSpaceOnUse"
   x1="337.90329"
   y1="324.3862"
   x2="237.2986"
   y2="239.9689"
   gradientTransform="translate(3e-6,0)" />

			
			
		</defs>
  <sodipodi:namedview
     inkscape:window-height="691"
     inkscape:window-width="939"
     inkscape:pageshadow="2"
     inkscape:pageopacity="0.0"
     guidetolerance="10.0"
     gridtolerance="10.0"
     objecttolerance="10.0"
     borderopacity="1.0"
     bordercolor="#666666"
     pagecolor="#ffffff"
     id="base"
     inkscape:zoom="0.44081944"
     inkscape:cx="357.76238"
     inkscape:cy="332.20792"
     inkscape:window-x="115"
     inkscape:window-y="92"
     inkscape:current-layer="layer2"
     showgrid="false"
     showguides="true"
     inkscape:guide-bbox="true">
    <sodipodi:guide
       orientation="horizontal"
       position="761.5"
       id="guide1885" />
    <sodipodi:guide
       orientation="vertical"
       position="1.5"
       id="guide1887" />
    <sodipodi:guide
       orientation="horizontal"
       position="1.5"
       id="guide1889" />
    <sodipodi:guide
       orientation="vertical"
       position="601.5"
       id="guide1891" />
    <sodipodi:guide
       orientation="vertical"
       position="301.50081"
       id="guide1893" />
  </sodipodi:namedview>
  <desc
     id="desc22">Coat of Arms of Canton of Freiburg (Fribourg)</desc>
  <g
     inkscape:groupmode="layer"
     id="layer1"
     inkscape:label="Fond écu"
     style="opacity:1"
     sodipodi:insensitive="true">
    <path
       d="M 1.500003,1.5 L 1.500003,460.368 C 1.500003,626.679 135.814,761.5 301.5,761.5 C 467.186,761.5 601.5,626.679 601.5,460.368 L 601.5,1.5 L 1.500003,1.5 z"
       id="path2590"
       style="opacity:1;fill:#ffffff" />
  </g>
  <g
     inkscape:groupmode="layer"
     id="layer2"
     inkscape:label="Meubles"
     style="opacity:1;display:inline"
     sodipodi:insensitive="true">
    <path
       id="path2522"
       d="M 332.48,306.181 C 332.48,306.181 352.153,311.904 363.957,319.415 C 375.76,326.926 380.411,333.722 373.614,345.168 C 373.614,345.168 381.814,334.257 391.52,330.056 C 402.674,325.227 414.143,306.65 432.63,307.79 C 432.63,307.79 418.192,293.44 406.519,310.115 C 402.764,315.48 392.213,324.601 379.515,319.057 C 366.817,313.513 351.617,303.677 351.617,293.841 C 351.617,284.005 332.48,306.181 332.48,306.181 z"
       style="fill:#fcef3c;stroke:#000000;stroke-width:3;stroke-linecap:round;stroke-linejoin:round" />
    <path
       id="path2524"
       d="M 296.981,323.349 C 296.981,323.349 333.732,352.053 339.366,355.54 C 344.999,359.027 342.585,364.929 334.268,369.758 C 325.953,374.587 328.367,386.658 329.976,392.292 C 329.976,392.292 332.832,375.914 349.828,364.125 C 364.717,353.797 366.728,361.845 376.453,352.12 C 384.723,343.849 390.134,342.328 390.134,342.328 C 390.134,342.328 384.267,336.114 370.216,347.224 C 364.448,351.784 354.12,353.93 343.256,345.614 C 332.391,337.298 311.199,320.934 311.199,314.764 C 311.199,308.595 296.981,323.349 296.981,323.349 z"
       style="fill:#fcef3c;stroke:#000000;stroke-width:3;stroke-linecap:round;stroke-linejoin:round" />
    <path
       id="path2533"
       d="M 288.248,327.106 C 276.105,335.434 262.908,341.765 248.784,344.81 C 248.784,344.81 248.81,341.645 249.451,336.236 C 172.426,416.776 162.8,441.951 149.706,441.951 C 137.634,441.951 135.945,415.641 135.945,415.641 C 114.567,419.478 109.086,405.226 117.308,397.003 C 125.53,388.781 202.27,303.819 206.106,299.982 C 209.943,296.145 230.499,242.153 266.95,205.702 C 303.402,169.251 340.95,168.429 340.95,168.429 C 345.336,149.244 357.393,124.03 395.215,124.03 C 433.037,124.03 445.097,153.081 445.097,153.081 C 466.475,156.37 474.148,158.563 474.148,161.852 C 474.148,164.897 437.638,168.116 437.638,168.116 C 437.638,168.116 424.406,193.511 415.463,209.249 C 406.52,224.987 396.862,264.332 357.16,296.166 C 336.834,312.463 309.797,321.838 288.248,327.106 z"
       style="fill:url(#linearGradient2743)" />
    <path
       id="path2535"
       d="M 422.616,167.758 C 408.666,170.262 399.017,182.08 388.994,200.665 C 377.682,221.635 391.175,256.587 406.452,228.892 C 406.452,228.892 406.452,228.892 406.452,228.891 C 410.041,220.79 412.787,213.958 415.463,209.249 C 421.647,198.366 429.88,182.87 434.372,174.342 C 435.158,169.186 432.546,165.976 422.616,167.758 z"
       style="fill:#e20909" />
    <path
       id="path2539"
       d="M 249.451,336.236 C 251.159,321.809 256.47,290.83 278.828,262.544 C 308.515,224.987 323.181,236.791 342.495,210.68"
       style="fill:none;stroke:#000000;stroke-width:3;stroke-linecap:round;stroke-linejoin:round" />
    <path
       id="path2541"
       d="M 376.475,211.038 C 376.475,211.038 343.139,289.463 288.248,327.106"
       style="fill:none;stroke:#000000;stroke-width:3;stroke-linecap:round;stroke-linejoin:round" />
    <line
       id="line2543"
       y2="412.815"
       x2="117.42401"
       y1="309.39999"
       x1="215.877"
       style="fill:none;stroke:#000000;stroke-width:3;stroke-linecap:round;stroke-linejoin:round" />
    <line
       id="line2545"
       y2="416.267"
       x2="130.03"
       y1="358.40201"
       x1="184.043"
       style="fill:none;stroke:#000000;stroke-width:3;stroke-linecap:round;stroke-linejoin:round" />
    <line
       id="line2547"
       y2="420.099"
       x2="136.44901"
       y1="320.159"
       x1="233.375"
       style="fill:none;stroke:#000000;stroke-width:3;stroke-linecap:round;stroke-linejoin:round" />
    <line
       id="line2549"
       y2="432.66101"
       x2="139.638"
       y1="376.64401"
       x1="192.627"
       style="fill:none;stroke:#000000;stroke-width:3;stroke-linecap:round;stroke-linejoin:round" />
    <path
       id="path2551"
       d="M 322.127,246.073 C 310.176,256.698 292.847,268.203 275.13,267.463"
       style="fill:none;stroke:#000000;stroke-width:3;stroke-linecap:round;stroke-linejoin:round" />
    <path
       id="path2553"
       d="M 266.978,280.362 C 297.763,286.571 324.7,264.141 338.573,245.722"
       style="fill:none;stroke:#000000;stroke-width:3;stroke-linecap:round;stroke-linejoin:round" />
    <path
       id="path2555"
       d="M 254.523,310.683 C 282.081,308.746 302.125,275.872 302.125,275.872 C 326.142,283.39 341.422,265.198 350.445,249.499 C 353.226,244.661 355.795,239.396 355.795,239.396"
       style="fill:none;stroke:#000000;stroke-width:3;stroke-linecap:round;stroke-linejoin:round" />
    <path
       id="path2557"
       d="M 318.374,277.159 C 318.374,277.159 283.461,328.355 250.563,328.355"
       style="fill:none;stroke:#000000;stroke-width:3;stroke-linecap:round;stroke-linejoin:round" />
    <path
       id="path2559"
       d="M 280.268,281.46 C 280.268,281.46 275.723,289.999 259.928,295.049"
       style="fill:none;stroke:#000000;stroke-width:3;stroke-linecap:round;stroke-linejoin:round" />
    <path
       id="path2561"
       d="M 300.393,240.893 C 300.393,240.893 350.283,261.877 371.248,222.195"
       style="fill:none;stroke:#000000;stroke-width:3;stroke-linecap:round;stroke-linejoin:round" />
    <path
       id="path2563"
       d="M 358.681,211.753 C 358.681,211.753 339.428,247.343 315.723,245.172"
       style="fill:none;stroke:#000000;stroke-width:3;stroke-linecap:round;stroke-linejoin:round" />
    <path
       id="path2565"
       d="M 288.248,327.106 C 276.105,335.434 262.908,341.765 248.784,344.81 C 248.784,344.81 248.81,341.645 249.451,336.236 C 172.426,416.776 162.8,441.951 149.706,441.951 C 137.634,441.951 135.945,415.641 135.945,415.641 C 114.567,419.478 109.086,405.226 117.308,397.003 C 125.53,388.781 202.27,303.819 206.106,299.982 C 209.943,296.145 230.499,242.153 266.95,205.702 C 303.402,169.251 340.95,168.429 340.95,168.429 C 345.336,149.244 357.393,124.03 395.215,124.03 C 433.037,124.03 443.361,153.081 443.361,153.081 C 464.739,156.37 474.147,158.563 474.147,161.852 C 474.147,164.897 437.637,168.116 437.637,168.116 C 437.637,168.116 424.405,193.511 415.462,209.249 C 406.519,224.987 396.861,264.332 357.159,296.166 C 336.834,312.463 309.797,321.838 288.248,327.106 z"
       style="fill:none;stroke:#000000;stroke-width:3;stroke-linecap:round;stroke-linejoin:round" />
    <circle
       sodipodi:ry="7.5110002"
       sodipodi:rx="7.5110002"
       sodipodi:cy="154.882"
       sodipodi:cx="412.95801"
       cx="412.95801"
       cy="154.882"
       r="7.5110002"
       id="circle2567"
       transform="translate(3e-6,0)" />
    <path
       style="fill:#e20909"
       d="M 601.5,166.729 L 48.295003,621.924 C 61.601003,642.892 77.421003,662.093 95.328003,679.106 L 601.5,262.611 L 601.5,166.729 z"
       id="path2571" />
    <path
       style="fill:none;stroke:#000000;stroke-width:3;stroke-linecap:round;stroke-linejoin:round"
       d="M 95.328003,679.105 L 601.5,262.611"
       id="path2573" />
    <path
       style="fill:none;stroke:#000000;stroke-width:3;stroke-linecap:round;stroke-linejoin:round"
       d="M 601.5,166.729 L 48.295003,621.924"
       id="path2575" />
    <polygon
       points="107.966,38.196 125.094,90.918 180.527,90.918 135.685,123.499 152.811,176.218 107.966,143.636 63.12,176.218 80.248,123.499 35.403,90.918 90.837,90.918 107.966,38.196 "
       id="polygon2492_7_"
       style="fill:#e20909;stroke:#000000;stroke-width:3;stroke-linecap:round;stroke-linejoin:round"
       transform="translate(3e-6,0)" />
  </g>
  <g
     inkscape:groupmode="layer"
     id="layer3"
     inkscape:label="Reflet final"
     style="display:inline"
     sodipodi:insensitive="true">
    <path
       style="fill:url(#radialGradient3236);fill-opacity:1"
       d="M 1.5,1.5 L 1.5,460.3679 C 1.5,626.67854 135.81454,761.5 301.49993,761.5 C 467.1854,761.5 601.5,626.67854 601.5,460.3679 L 601.5,1.5 L 1.5,1.5 z "
       id="path2346" />
  </g>
  <g
     inkscape:groupmode="layer"
     id="layer4"
     inkscape:label="Contour final"
     style="display:inline"
     sodipodi:insensitive="true">
    <path
       style="fill:none;fill-opacity:1;stroke:#000000;stroke-width:3;stroke-miterlimit:4;stroke-dasharray:none;stroke-opacity:1"
       d="M 1.5,1.5 L 1.5,460.36794 C 1.5,626.67854 135.81454,761.5 301.49993,761.5 C 467.1854,761.5 601.5,626.67854 601.5,460.36794 L 601.5,1.5 L 1.5,1.5 z "
       id="path3239" />
  </g>
</svg>
